!!!!SEGMENT:pl-sa--576-a-ix-56--007_anonim-marsz-auster.krn
!!!id: 18xx:636
!!!COM: Anonim
!!!OTL: Marsz Auster
!!!PDT:
!!!SMS-siglum: PL-SA
!!!SMS-shelfmark: 576/A IX 56
!!!SMS-variant:
!!!SMS-altvar:
!!!NIFC-rismID: 1001109923
!!!system-decoration: {(s1,s2)}
**kern	**kern	**dynam
*part1	*part1	*part1
*staff2	*staff1	*
*	*I"Piano	*
*clefF4	*clefG2	*
*k[]	*k[]	*
*M4/4	*M4/4	*
*met(c)	*met(c)	*
*>[A,A,B,B]	*>[A,A,B,B]	*
=1	=1	=1
*^	*	*
*>A	*	*>A	*
*2\right	*	*2\right	*
!	!	!LO:TX:a:Bi:t=Marſz Auster:rj	!
4c 4G 4E 4C\	4ryy	4ccc 4gg 4ee 4cc\	ff
!	!LO:TX:b:t=P:w źródle w pierwszych dwóch taktach paru nutom brakuje caud:problem	!	!
!	!LO:N:vis=x	!	!
8CL	8CC/	(<8ccL 8g 8e/	.
!	!LO:N:vis=x	!	!
8CJ	8CC/	(<8ccJ 8g 8e/)	.
!	!LO:N:vis=x	!	!
4C	4CC/	4cc 4g 4e/)	.
!	!LO:N:vis=x	!	!
4C	4CC/	4cc 4g 4e/	.
=2	=2	=2	=2
8C/L	2ryy	2cc 2g 2e/	.
8GG/	.	.	.
8EE/	.	.	.
8GG/J	.	.	.
!	!LO:N:vis=1	!	!
2C	2CC/	2g/	.
*v	*v	*	*
=3	=3	=3
4c: 4G: 4E: 4C:\	4cc: 4g: 4e:\	.
4r	(>8g\L	.
.	8cc\J)	.
4c: 4G: 4E: 4C:\	4ee''>\	.
4r	(>8dd\L	.
.	8cc\J)	.
=4	=4	=4
4G: 4D: 4BB: 4GG:\	4dd''>\	.
4r	8g/L	.
.	8g/J	.
!	!	!LO:DY:a
2G 2GG/	2g 2d 2B/	f
=5	=5	=5
4G: 4D: 4BB: 4GG:/	4dd: 4b: 4g:\	.
4r	(>8b\L	.
.	8dd\J)	.
4G: 4D: 4BB: 4GG:/	4ff''>\	.
4r	(>8ee\L	.
.	8dd\J)	.
=6	=6	=6
*^	*	*
4c 4G 4E 4C\	2ryy	4ee''>\	.
4r	.	8cc\L	.
.	.	8cc\J	f
!	!LO:TX:b:t=P:w źródle nuta 2CC bez caudy:problem	!	!
!	!LO:N:vis=1	!	!
2C	2CC/	2cc 2g 2e\	.
*v	*v	*	*
=7	=7	=7
!LO:TX:a:t=P:znak początku repetycji:problem	!LO:TX:a:t=P:znak początku repetycji:problem	!
!	!LO:TX:a:t=P:w źródle pomiędzy dwoma znakami repetycji rozciągnięty łuk [nad górną pięciolinią]:problem	!
.	8qff#X/	p
2r	8gg\L	.
.	8qff#/	.
.	8gg\J	.
.	4ee\	.
8CL 8CC/	8ccL 8g 8e/	f
!	!LO:TX:a:Bi:t=bis	!
8CJ 8CC/	8ccJ 8g 8e/	.
4C 4CC/	4cc 4g 4e/	.
=8	=8	=8
!LO:N:vis=4	!	!
.	8qff#X/	p
2r	8gg\L	.
.	8qff#/	.
.	8gg\J	.
.	4dd\	.
8GL 8GG/	8gL 8d 8B/	f
8GJ 8GG/	8gJ 8d 8B/	.
4G 4GG/	4g 4d 4B/	.
!LO:TX:a:t=P:znak końca repetycji:problem	!LO:TX:a:t=P:znak końca repetycji:problem	!
=9	=9	=9
*rep	*rep	*
!LO:TX:a:t=P:powtórzenie taktów oznaczone znakami repetycji:problem	!LO:TX:a:t=P:powtórzenie taktów oznaczone znakami repetycji:problem	!
.	8qff#X/	p
2r	8gg\L	.
.	8qff#/	.
.	8gg\J	.
.	4ee\	.
8CL 8CC/	8ccL 8g 8e/	f
8CJ 8CC/	8ccJ 8g 8e/	.
4C 4CC/	4cc 4g 4e/	.
=10	=10	=10
!LO:N:vis=4	!	!
.	8qff#X/	p
2r	8gg\L	.
.	8qff#/	.
.	8gg\J	.
.	4dd\	.
8GL 8GG/	8gL 8d 8B/	f
8GJ 8GG/	8gJ 8d 8B/	.
4G 4GG/	4g 4d 4B/	.
*Xrep	*Xrep	*
=11	=11	=11
8C/L	8cc\L	<
8D/	8dd\	.
8E/	8ee\	.
8F#X/J	8ff#X\J	[ >
4G\	4gg\	.
8E\L	8ee\L	.
8C\J	8cc\J	]
=12	=12	=12
8G\L	8gg\L	f
8G\J	8gg\J	.
8D\L	8dd\L	.
8BB\J	8b\J	.
2GG/	4.g/	.
.	8g/	.
!!LO:LB:g=original
=13	=13	=13
8BL 8G\	4.dd\	.
8d\	.	.
8B 8G\	.	.
8d\J	16ee\LL	.
.	16dd\JJ	.
*rep	*	*
8BL 8G\	4.b\	.
8d\	.	.
8B 8G\	.	.
8d\J	8b\	.
*Xrep	*	*
=14	=14	=14
8cL 8A 8F#X\	8a\L	.
8d\	8b\	.
8c 8A 8F#\	8cc\	.
8d\J	8dd\J	.
8BL 8G\	4.b\	.
8d\	.	.
8B 8G\	.	.
8d\J	8b\	.
=15	=15	=15
*tremolo	*	*
!LO:TX:a:t=P:w źródle tremolo opisane za pomocą dwóch połączonych półnut:problem	!	!
8BL 8G\	8dd\L	.
8d\	8ddss\J	.
8B 8G\	8gg\L	.
8d\	8ff#X\J	.
8B 8G\	8ee\L	.
8d\	8dd\	.
8B 8G\	8cc\	.
8d\J	8b\J	.
*Xtremolo	*	*
=16	=16	=16
8cL 8A 8F#X\	8a\L	.
8d\	8b\	.
8c 8A 8F#\	8cc\	.
8d\J	8dd\J	.
8BL 8G\	4.b\	.
8d\	.	.
8B 8G\	.	.
8d\J	8b\	.
=17	=17	=17
*tremolo	*	*
!LO:TX:a:t=P:w źródle tremolo opisane za pomocą dwóch połączonych półnut:problem	!	!
!	!LO:TX:b:Bi:t=cres.:problem:dynamics with extention lines	!
!	!	!LO:HP:b:Bi:t=cres.:ext=u
8BL 8G\	4.gg\	<
8d\	.	.
8B 8G\	.	.
8d\	8b\	.
8B 8G\	4.b\	.
8d\	.	.
8B 8G\	.	.
8d\J	8b\	.
*Xtremolo	*	*
=18	=18	=18
8cL 8A 8F#X\	8a\L	.
8d\	8b\	.
8c 8A 8F#\	8cc\	.
8d\J	8dd\J	.
8BL 8G\	4.b\	.
8d\	.	.
8B 8G\	.	.
8d\J	8b\	.
=19	=19	=19
*tremolo	*	*
!LO:TX:a:t=P:w źródle tremolo opisane za pomocą dwóch połączonych półnut:problem	!	!
8BL 8G\	8dd\L	.
8d\	8ddss\J	[
8B 8G\	8ggL 8ee\	.
8d\	8ff#XJ 8dd\	.
8B 8G\	8eeL 8cc\	.
8d\	8dd 8b\	.
8B 8G\	8cc 8a\	.
8d\J	8bJ 8g\	.
*Xtremolo	*	*
=20	=20	=20
8cL 8A 8F#X\	8a\L	.
8d\	8b\	.
8c 8A 8F#\	8cc\	.
8d\J	8dd\J	.
8BL 8G\	4.b\	.
8d\	.	.
8B 8G\	.	.
8d\J	8b\	.
=21	=21	=21
4G 4D 4BB 4GG\	4gg 4dd 4b\	.
8G\L	8gg\L	.
8G\J	8gg\J	.
8G\L	8gg\L	.
8F#X\	8ff#X\	.
8E\	8ee\	.
8D#X\J	8dd#X\J	.
=22	=22	=22
*^	*	*
!	!LO:TX:b:t=P:w źródle paru nutom brakuje caud:problem	!	!
!	!LO:N:vis=x	!	!
4C	4CC\	4ee\	.
!	!LO:N:vis=x	!	!
8CL	8CC\	8ee\L	.
!	!LO:N:vis=x	!	!
8CJ	8CC\	8ee\J	.
!	!LO:N:vis=x	!	!
4C	4CC\	8ee\L	.
.	.	8gg\	.
!	!	!LO:SIC:s=8ff#:v	!
4r	4ryy	8ff\	.
.	.	8ee\J	.
*v	*v	*	*
=23	=23	=23
4G 4GG/	8dd\L	.
.	8gg\	.
4r	8b\	.
.	8dd\J	.
4D 4DD/	8dd\L	.
.	8cc\	.
4r	8b\	.
.	8a\J	.
!!LO:LB:g=original
=24	=24	=24
8BL 8G\	4.g/	.
8d\	.	.
8B 8G\	.	.
8d\J	8g/	.
!LO:SIC:n=3:s=8F#:v	!	!
8cL 8A 8F\	8a/L	.
8d\	8b/	.
!LO:SIC:n=3:s=8F#:v	!	!
8c 8A 8F\	8cc/	.
8d\J	8dd/J	.
=25	=25	=25
8BL 8G\	4.b/	.
8d\	.	.
8B 8G\	.	.
8d\J	8b/	.
!LO:SIC:n=3:s=8F#:v	!	!
8cL 8A 8F\	8a\L	.
8d\	8g#X\	.
!LO:SIC:n=3:s=8F#:v	!	!
8c 8A 8F\	8a\	.
8d\J	8f#X\J	.
=26	=26	=26
8BL 8G\	4.g/	.
8d\	.	.
8B 8G\	.	.
8d\J	8g/	.
!LO:SIC:n=3:s=8F#:v	!	!
8cL 8A 8F\	8a/L	.
8d\	8b/	.
!LO:SIC:n=3:s=8F#:v	!	!
8c 8A 8F\	8cc/	.
8d\J	8dd/J	.
=27	=27	=27
8BL 8G\	4.b/	.
8d\	.	.
8B 8G\	.	.
8d\J	8b/	.
!LO:SIC:n=3:s=8F#:v	!	!
8cL 8A 8F\	8a\L	.
8d\	8g#X\	.
!LO:SIC:n=3:s=8F#:v	!	!
8c 8A 8F\	8a\	.
8d\J	8f#X\J	.
=28	=28	=28
4G 4GG\	8bL 8g\	.
.	8bss 8g\	.
4D 4DD/	8cc 8a\	.
!	!LO:SIC:n=2:s=8f#:v	!
.	8aJ 8f\	.
4G 4GG\	8bL 8g\	.
.	8bss 8g\	.
4D 4DD/	8cc 8a\	.
!	!LO:SIC:n=2:s=8f#:v	!
.	8aJ 8f\	.
=29	=29	=29
4G 4GG\	4gg 4dd 4b/	.
8GL 8GG\	8ggL 8dd 8b\	.
8GJ 8GG\	8ggJ 8dd 8b\	.
4G 4GG\	4gg 4dd 4b\	.
4ryy	4r	.
=30:|!|:	=30:|!|:	=30:|!|:
*>B	*>B	*
!	!LO:TX:b:B:t=Lamentoso	!
4E 4EE/	4ee 4e/	.
8EL 8EE/	8eeL 8e/	.
8EJ 8EE/	8eeJ 8e/	.
4E 4EE/	4ee 4e/	.
4E 4EE/	4ee 4e/	.
=31	=31	=31
1D#X 1DD#X	1dd#X 1d#X	.
=32	=32	=32
4E 4EE\	4ee 4e\	.
4F 4FF\	4ff 4f\	.
4E 4EE\	4ee 4e\	.
4D#X 4DD#X\	4dd#X 4d#X\	.
=33	=33	=33
1E 1EE	4ee\	.
.	[>4b\	.
.	4.b\]	.
.	8ee\	.
=34	=34	=34
4D 4DD/	4dd\	.
4C 4CC/	4cc\	.
4BB 4BBB/	4b\	.
4AA 4AAA/	4a\	.
=35	=35	=35
1E 1EE	4.b\	.
.	8g#X\	.
.	4.e/	.
.	8e/	.
=36	=36	=36
*^	*	*
2A/	1AA	4.a\	.
.	.	8g#X\	.
2r	.	8a\L	.
.	.	8b\	.
.	.	8cc\	.
.	.	8a\J	.
*v	*v	*	*
!!LO:LB:g=original
=37	=37	=37
1E 1EE	4.b\	.
.	8g#X\	.
.	4e/	.
.	4r	.
=38	=38	=38
!	!	!LO:DY:b:t=%s
8cL 8A\	(>8.ee\L	p
8e\	.	.
.	16ff\K)	.
8c 8A\	(>8.ee\	.
8e\J	.	.
.	16ff\Jk)	.
*rep	*	*
8cL 8A\	(>8.ee\L	.
8e\	.	.
.	16ff\K)	.
8c 8A\	(>8.ee\	.
8e\J	.	.
.	16ff\Jk)	.
*Xrep	*	*
=39	=39	=39
8BL 8G#X 8E\	(>8.ee\L	.
8d\	.	.
.	16dd#X\K)	.
8B 8G# 8E\	(>8.cc\	.
8d\J	.	.
.	16b\Jk)	.
8cL 8A\	(>8.a\L	.
8e\	.	.
.	16b\K	.
8c 8A\	8.cc\	.
8e\J	.	.
.	16dd#\Jk)	.
=40	=40	=40
8cL 8A\	(>8.eeL 8.cc\	.
8e\	.	.
.	16ffK 16dd\)	.
8c 8A\	(>8.ee 8.cc\	.
8e\J	.	.
.	16ffJk 16dd\)	.
*rep	*	*
8cL 8A\	(>8.eeL 8.cc\	.
8e\	.	.
.	16ffK 16dd\)	.
8c 8A\	(>8.ee 8.cc\	.
8e\J	.	.
.	16ffJk 16dd\)	.
*Xrep	*	*
=41	=41	=41
8BL 8G#X 8E\	8.eeL 8.cc\	.
8d\	.	.
.	16ddK 16b\	.
8B 8G# 8E\	8.cc 8.a\	.
8d\J	.	.
.	16bJk 16g#X\	.
8A\L	4a/	.
8E\	.	.
8C\	4r	.
8AA\J	.	.
=42	=42	=42
!	!LO:TX:a:t=P:w źródle akord przekreślony; możliwe tremolo:problem	!
4c 4G 4E 4C\	4gg 4ee 4cc 4g\	f
8cL 8C\	8gg\L	.
8cJ 8C\	8gg\J	.
4c 4C\	8.gg\L	.
.	16aa\K	.
4r	8.gg\	.
.	16ff\Jk	.
=43	=43	=43
8.c\L	8.cc\L	.
16G\K	16g\K	.
8.E\	8.e\	.
16G\Jk	16g\Jk	.
8.c\L	8.cc\L	.
16G\K	16g\K	.
8.E\	8.e\	.
16C\Jk	16c\Jk	.
=44	=44	=44
!	!LO:TX:a:t=P:w źródle akord przekreślony; możliwe tremolo:problem	!
4c 4G 4E 4C\	4gg 4ee 4cc 4g\	.
8cL 8C\	8gg\L	.
8cJ 8C\	8gg\J	.
4c 4C\	8.gg\L	.
.	16aa\K	.
4r	8.gg\	.
.	16ff\Jk	.
=45	=45	=45
8.c\L	8.cc\L	.
16G\K	16g\K	.
8.E\	8.e\	.
16G\Jk	16g\Jk	.
8.c\L	8.cc\L	.
16G\K	16g\K	.
8.E\	8.e\	.
16C\Jk	16c\Jk	.
=46	=46	=46
4G 4GG\	8dd\L	.
.	8gg\	.
4c 4C\	8ee\	.
.	8cc\J	.
4G 4GG\	8dd\L	.
.	8gg\	.
4c 4C\	8ee\	.
.	8cc\J	.
!!LO:LB:g=original
=47	=47	=47
4G 4GG/	4gg 4dd 4b 4g\	.
8GL 8GG/	8gg\L	.
8GJ 8GG/	8gg\J	.
4G 4GG/	8gg\L	.
.	8ff\	.
4r	8ee\	.
.	8dd\J	.
*clefG2	*	*
=48	=48	=48
8eL 8c/	4.gg\	p
8g/	.	.
8e 8c/	.	.
8g/J	16aa\LL	.
.	16gg\JJ	.
*rep	*	*
8eL 8c/	4.ee\	.
8g/	.	.
8e 8c/	.	.
8g/J	8ee\	.
*Xrep	*	*
=49	=49	=49
8fL 8d 8B/	8dd\L	.
8g/	8ee\	.
8f 8d 8B/	8ff\	.
8g/J	8gg\J	.
8eL 8c/	4.ee\	.
8g/	.	.
8e 8c/	.	.
8g/J	8ee\	.
=50	=50	=50
8eL 8c/	8gg\L	.
8g/	8ggss\	.
8e 8c/	8ccc\	.
8g/J	8bb\J	.
*rep	*	*
8eL 8c/	8aa\L	.
8g/	8gg\	.
8e 8c/	8ff\	.
8g/J	8ee\J	.
*Xrep	*	*
=51	=51	=51
8dL 8B/	8dd\L	.
8g/	8ee\	.
8d 8B/	8ff\	.
8g/J	8gg\J	.
8eL 8c/	4.ee\	.
8g/	.	.
8e 8c/	.	.
8g/J	8ee\	.
=52	=52	=52
*tremolo	*	*
!LO:TX:a:t=P:w źródle tremolo opisane za pomocą dwóch połączonych półnut:problem	!	!
8eL 8c/	4.ccc\	<
8g/	.	.
8e 8c/	.	.
8g/	8ee\	.
8e 8c/	4.ee\	.
8g/	.	.
8e 8c/	.	.
8g/J	8ee\	.
*Xtremolo	*	*
=53	=53	=53
8dL 8B/	8dd\L	.
8g/	8ee\	.
8d 8B/	8ff\	.
8g/J	8gg\J	.
8eL 8c/	4.ee\	.
8g/	.	.
8e 8c/	.	.
8g/J	8ee\	.
=54	=54	=54
*tremolo	*	*
!LO:TX:a:t=P:w źródle tremolo opisane za pomocą dwóch połączonych półnut:problem	!	!
8eL 8c/	8gg\L	.
8g/	8ggss\	.
8e 8c/	8ccc 8aa\	.
8g/	8bbJ 8gg\	.
8e 8c/	8aaL 8ff\	.
8g/	8gg 8ee\	.
8e 8c/	8ff 8dd\	.
8g/J	8eeJ 8cc\	.
*Xtremolo	*	*
=55	=55	=55
8dL 8B/	8ddL 8b\	.
8g/	8ee 8cc\	.
8d 8B/	8ff 8dd\	.
8g/J	8ggJ 8ee\	.
8eL 8c/	4.ee\	.
8g/	.	.
8e 8c/	.	.
8g/J	8ee\	.
=56	=56	=56
!LO:CL:ed	!	!
*clefF4	*	*
4c 4C\	4ccc\	f
8cL 8C\	8ccc\L	.
8cJ 8C\	8ccc\J	.
8c\L	8ccc\L	.
8B\	8bb\	.
8A\	8aa\	.
8G#X\J	8gg#X\J	.
!!LO:PB:g=original
=57	=57	=57
4F 4FF/	4aa\	.
8FL 8FF/	8aa\L	.
8FJ 8FF/	8aa\J	.
4F 4FF/	8aa\L	.
.	8ccc\	.
4r	8bb\	.
.	8aa\J	.
=58	=58	=58
4c 4C\	8gg\L	.
.	8ccc\	.
4c 4C\	8ee\	.
.	8gg\J	.
4G 4GG\	8gg\L	.
.	8ff\	.
4r	8ee\	.
.	8dd\J	.
*clefG2	*	*
=59	=59	=59
8eL 8c/	4.cc\	.
8g/	.	.
8e 8c/	.	.
8g/J	8cc\	.
8dL 8B/	8dd\L	.
8g/	8ee\	.
8d 8B/	8ff\	.
8g/J	8gg\J	.
=60	=60	=60
8eL 8c/	4.ee\	.
8g/	.	.
8e 8c/	.	.
8g/J	8ee\	.
8dL 8B/	8dd\L	.
8g/	8cc\	.
8d 8B/	8dd\	.
8g/J	8b\J	.
=61	=61	=61
8eL 8c/	4.cc\	.
8g/	.	.
8e 8c/	.	.
8g/J	8cc\	.
8dL 8B/	8dd\L	.
8g/	8ee\	.
8d 8B/	8ff\	.
8g/J	8gg\J	.
=62	=62	=62
8eL 8c/	4.ee\	.
8g/	.	.
8e 8c/	.	.
8g/J	8ee\	.
8dL 8B/	8dd\L	.
8g/	8cc\	.
8d 8B/	8dd\	.
8g/J	8b\J	.
=63	=63	=63
!LO:CL:ed	!	!
*clefF4	*	*
4c 4C\	8cc\L	.
.	8ccss\	.
4G 4GG\	8dd\	.
.	8b\J	.
4c 4C\	8cc\L	.
.	8ccss\	.
4G 4GG\	8dd\	.
.	8b\J	.
=64	=64	=64
4C\	4cc\	.
8CL 8CC/	8cccL 8ee 8cc\	.
8CJ 8CC/	8cccJ 8ee 8cc\	.
4C 4CC/	4ccc 4ee 4cc\	.
4r	4r	.
==:|!	==:|!	==:|!
*-	*-	*-
!!title: @{OTL};
!!!RDF**kern: > = above
!!!RDF**kern: < = below
!!!RDF**dynam: < = "crescendo", fontstyle="bold-italic"
!!!RDF**dynam: f = "for", fontstyle="bold-italic"
!!!RDF**dynam: p = "pia", fontstyle="bold-italic"
!!!ENC: Andrzej Kubiczek
!!!END: 2020-06-19
!!!EED: Wojciech Jakubiak-Danek
!!!EST: 2020-12-10
!!!URL-scan: http://bc.bdsandomierz.pl/dlibra/publication/1384/edition/1352/content
!!!ONB-nifc: Str. 9-10
